;FLAVOR:Marlin
;TIME:4353
;Filament used: 3.32129m
;Layer height: 0.15
;MINX:45.105
;MINY:59.69
;MINZ:0.3
;MAXX:104.783
;MAXY:90.308
;MAXZ:48
;Generated with Cura_SteamEngine 5.2.1
M82 ;absolute extrusion mode
M104 S200.0;; Begin Heating

G91 ; Relative coordinates

G1 Z10 ; Lift the head abit

G90 ; Back to absolute coordinates

G28 ; Home All

G1 Z10 F500; Dont want to burn the bed while heating

M109 S200.0; Wait for pre-heat

; Prime the extruder

G92 E0; Set Extruder position to be 0

G1 E5 F100 ; Extrude a bit in the air

G1 X0 Y5 Z0.1 F500; Touch Down

G92 E0; Set Extruder position to be 0

G1 X100 Z0.3 E10 F500; Nozzle wipe

G92 E0; Set Extruder position to be 0
G92 E0
G92 E0
G1 F1500 E-6.5
;LAYER_COUNT:319
;LAYER:0
M107
G0 F3600 X47.486 Y65.417 Z0.3
;TYPE:SKIRT
G1 F1500 E0
G1 F2100 X47.952 Y65.122 E0.02752
G1 X48.824 Y64.692 E0.07602
G1 X49.64 Y64.469 E0.11823
G1 X50.343 Y64.361 E0.15371
G1 X51.475 Y64.27 E0.21037
G1 X73.221 Y62.941 E1.2973
G1 X74.452 Y62.889 E1.35877
G1 X75.331 Y62.882 E1.40263
G1 X76.195 Y62.907 E1.44575
G1 X76.972 Y62.969 E1.48464
G1 X78.623 Y63.206 E1.56785
G1 X79.523 Y63.406 E1.61385
G1 X80.124 Y63.567 E1.64489
G1 X81.011 Y63.84 E1.69119
G1 X81.82 Y64.123 E1.73395
G1 X82.821 Y64.529 E1.78784
G1 X83.502 Y64.862 E1.82566
G1 X84.616 Y65.456 E1.88865
G1 X85.684 Y66.135 E1.95179
G1 X86.463 Y66.692 E1.99956
G1 X87.176 Y67.252 E2.0448
G1 X87.855 Y67.855 E2.0901
G1 X88.894 Y68.871 E2.1626
G1 X89.626 Y69.709 E2.21811
G1 X90.259 Y70.53 E2.26983
G1 X90.834 Y71.334 E2.31915
G1 X91.446 Y72.333 E2.3776
G1 X91.706 Y72.835 E2.4058
G1 X91.981 Y73.65 E2.44871
G1 X92.106 Y74.201 E2.4769
G1 X92.161 Y75.162 E2.52493
G1 X92.07 Y75.987 E2.56633
G1 X91.858 Y76.792 E2.60787
G1 X91.503 Y77.62 E2.65281
G1 X91.044 Y78.349 E2.69579
G1 X90.541 Y79.091 E2.74051
G1 X89.786 Y80.101 E2.80342
G1 X89.109 Y80.888 E2.85522
G1 X88.631 Y81.41 E2.89053
G1 X87.863 Y82.141 E2.94343
G1 X87.425 Y82.532 E2.97272
G1 X86.691 Y83.151 E3.02062
G1 X85.318 Y84.106 E3.10406
G1 X83.9 Y84.944 E3.18624
G1 X83.063 Y85.353 E3.23271
G1 X82.279 Y85.698 E3.27545
G1 X81.551 Y85.982 E3.31443
G1 X81.016 Y86.168 E3.34269
G1 X80.223 Y86.409 E3.38404
G1 X79.444 Y86.613 E3.42421
G1 X78.452 Y86.824 E3.47481
G1 X77.097 Y87.013 E3.54307
G1 X76.579 Y87.068 E3.56906
G1 X75.691 Y87.121 E3.61344
G1 X75.182 Y87.133 E3.63884
G1 X74.628 Y87.125 E3.66648
G1 X73.465 Y87.074 E3.72456
G1 X50.981 Y85.698 E4.84839
G1 X50.306 Y85.647 E4.88216
G1 X49.305 Y85.467 E4.9329
G1 X48.498 Y85.174 E4.97574
G1 X47.826 Y84.82 E5.01363
G1 X47.197 Y84.365 E5.05236
G1 X46.745 Y83.924 E5.08386
G1 X46.353 Y83.475 E5.1136
G1 X46.012 Y83.024 E5.14181
G1 X45.566 Y82.173 E5.18974
G1 X45.255 Y81.229 E5.23933
G1 X45.146 Y80.403 E5.2809
G1 X45.105 Y79.886 E5.30677
G1 X45.105 Y70.567 E5.7717
G1 X45.118 Y69.823 E5.80882
G1 X45.174 Y69.182 E5.84092
G1 X45.347 Y68.46 E5.87796
G1 X45.518 Y67.92 E5.90622
G1 X45.887 Y67.207 E5.94628
G1 X46.276 Y66.611 E5.98178
G1 X46.618 Y66.16 E6.01002
G1 X47.02 Y65.763 E6.03821
G1 X47.486 Y65.417 E6.06717
G0 F3600 X47.428 Y65.927
G1 F2100 X48.166 Y65.46 E6.11074
G1 X48.962 Y65.067 E6.15503
G1 X49.712 Y64.862 E6.19382
G1 X50.376 Y64.76 E6.22733
G1 X51.499 Y64.67 E6.28354
G1 X73.306 Y63.338 E7.37352
G1 X74.455 Y63.289 E7.4309
G1 X75.334 Y63.282 E7.47475
G1 X76.182 Y63.307 E7.51708
G1 X76.916 Y63.365 E7.55381
G1 X78.467 Y63.585 E7.63197
G1 X79.437 Y63.797 E7.6815
G1 X80.007 Y63.949 E7.71093
G1 X80.739 Y64.172 E7.74911
G1 X81.688 Y64.501 E7.79922
G1 X82.578 Y64.866 E7.84721
G1 X83.326 Y65.221 E7.88852
G1 X84.137 Y65.652 E7.93434
G1 X84.671 Y65.961 E7.96512
G1 X85.452 Y66.461 E8.01138
G1 X86.216 Y67.007 E8.05823
G1 X86.881 Y67.528 E8.10038
G1 X87.575 Y68.141 E8.14658
G1 X88.606 Y69.149 E8.21851
G1 X89.258 Y69.895 E8.26794
G1 X89.85 Y70.65 E8.31581
G1 X90.498 Y71.55 E8.37114
G1 X91.105 Y72.542 E8.42916
G1 X91.35 Y73.019 E8.45591
G1 X91.598 Y73.766 E8.49518
G1 X91.715 Y74.289 E8.52192
G1 X91.761 Y75.158 E8.56533
G1 X91.671 Y75.942 E8.6047
G1 X91.477 Y76.67 E8.64229
G1 X91.146 Y77.435 E8.68387
G1 X90.711 Y78.127 E8.72465
G1 X90.33 Y78.697 E8.75886
G1 X89.472 Y79.852 E8.83064
G1 X88.894 Y80.527 E8.87498
G1 X88.343 Y81.131 E8.91576
G1 X87.49 Y81.94 E8.97442
G1 X87.091 Y82.292 E9.00096
G1 X86.449 Y82.832 E9.04282
G1 X85.105 Y83.767 E9.1245
G1 X83.992 Y84.427 E9.18905
G1 X83.513 Y84.687 E9.21625
G1 X82.742 Y85.06 E9.25898
G1 X81.975 Y85.39 E9.30063
G1 X81.097 Y85.726 E9.34753
G1 X79.956 Y86.069 E9.40698
G1 X79.345 Y86.226 E9.43845
G1 X78.721 Y86.361 E9.4703
G1 X78.012 Y86.484 E9.5062
G1 X77.043 Y86.617 E9.555
G1 X76.539 Y86.67 E9.58028
G1 X75.777 Y86.717 E9.61837
G1 X75.188 Y86.733 E9.64777
G1 X74.634 Y86.725 E9.67541
G1 X73.489 Y86.674 E9.73259
G1 X51.011 Y85.299 E10.85612
G1 X50.336 Y85.248 E10.88989
G1 X49.41 Y85.083 E10.93681
G1 X48.636 Y84.798 E10.97796
G1 X47.866 Y84.356 E11.02226
G1 X47.432 Y84.04 E11.04904
G1 X47.046 Y83.661 E11.07603
G1 X46.654 Y83.212 E11.10577
G1 X46.332 Y82.782 E11.13257
G1 X45.932 Y82.011 E11.1759
G1 X45.646 Y81.134 E11.22192
G1 X45.505 Y80.062 E11.27587
G1 X45.505 Y70.574 E11.74923
G1 X45.518 Y69.83 E11.78635
G1 X45.616 Y69.053 E11.82542
G1 X45.736 Y68.553 E11.85108
G1 X45.9 Y68.042 E11.87785
G1 X46.222 Y67.425 E11.91257
G1 X46.611 Y66.829 E11.94808
G1 X46.937 Y66.403 E11.97484
G1 X47.428 Y65.927 E12.00896
G0 F3600 X47.7 Y66.229
G1 F2100 X48.38 Y65.798 E12.04913
G1 X49.101 Y65.442 E12.08924
G1 X49.784 Y65.256 E12.12456
G1 X50.408 Y65.158 E12.15607
G1 X51.524 Y65.069 E12.21193
G1 X73.324 Y63.737 E13.30156
G1 X74.459 Y63.689 E13.35824
G1 X75.338 Y63.682 E13.40209
G1 X76.169 Y63.707 E13.44357
G1 X76.86 Y63.761 E13.47815
G1 X78.177 Y63.948 E13.54451
G1 X78.68 Y64.038 E13.57001
G1 X79.35 Y64.187 E13.60425
G1 X79.891 Y64.332 E13.63219
G1 X80.747 Y64.595 E13.67687
G1 X81.556 Y64.878 E13.71963
G1 X82.55 Y65.286 E13.77323
G1 X83.244 Y65.628 E13.81183
G1 X83.949 Y66.004 E13.85169
G1 X84.457 Y66.299 E13.881
G1 X85.221 Y66.787 E13.92623
G1 X85.848 Y67.231 E13.96456
G1 X86.615 Y67.827 E14.01302
G1 X87.295 Y68.427 E14.05826
G1 X88.324 Y69.433 E14.13006
G1 X89.063 Y70.288 E14.18644
G1 X89.609 Y70.995 E14.23101
G1 X90.162 Y71.768 E14.27842
G1 X90.764 Y72.751 E14.33593
G1 X90.993 Y73.201 E14.36112
G1 X91.215 Y73.882 E14.39686
G1 X91.323 Y74.376 E14.42209
G1 X91.362 Y75.152 E14.46085
G1 X91.273 Y75.895 E14.49818
G1 X91.008 Y76.749 E14.54279
G1 X90.698 Y77.396 E14.57859
G1 X90.431 Y77.823 E14.60371
G1 X89.9 Y78.612 E14.65116
G1 X89.16 Y79.602 E14.71282
G1 X88.519 Y80.347 E14.76186
G1 X88.06 Y80.848 E14.79575
G1 X87.091 Y81.768 E14.86242
G1 X86.199 Y82.518 E14.92056
G1 X85.193 Y83.221 E14.98179
G1 X84.692 Y83.547 E15.01161
G1 X83.534 Y84.232 E15.07873
G1 X82.711 Y84.634 E15.12443
G1 X81.831 Y85.017 E15.17231
G1 X80.974 Y85.345 E15.21809
G1 X79.99 Y85.644 E15.2694
G1 X79.245 Y85.838 E15.30781
G1 X78.639 Y85.969 E15.33874
G1 X78.067 Y86.07 E15.36772
G1 X76.875 Y86.234 E15.42775
G1 X76.361 Y86.283 E15.45351
G1 X75.407 Y86.337 E15.50118
G1 X74.542 Y86.322 E15.54434
G1 X73.514 Y86.275 E15.59568
G1 X51.041 Y84.9 E16.71896
G1 X50.366 Y84.849 E16.75273
G1 X49.512 Y84.696 E16.79602
G1 X48.775 Y84.421 E16.83526
G1 X48.076 Y84.015 E16.87559
G1 X47.548 Y83.628 E16.90825
G1 X46.955 Y82.949 E16.95323
G1 X46.654 Y82.543 E16.97844
G1 X46.296 Y81.846 E17.01753
G1 X46.036 Y81.034 E17.06007
G1 X45.905 Y80.04 E17.11009
G1 X45.904 Y70.581 E17.582
G1 X45.917 Y69.837 E17.61913
G1 X46.005 Y69.146 E17.65388
G1 X46.125 Y68.646 E17.67953
G1 X46.282 Y68.165 E17.70477
G1 X46.557 Y67.644 E17.73417
G1 X46.946 Y67.048 E17.76967
G1 X47.255 Y66.648 E17.79489
G1 X47.7 Y66.229 E17.82538
G1 F1500 E11.32538
;MESH:3DBenchy.stl
G0 F3600 X67.536 Y73.451
G1 F1500 E17.82538
G0 F3600 X67.725 Y73.652
;TYPE:WALL-INNER
G1 F2100 X67.728 Y76.287 E17.95684
G1 X68.12 Y76.272 E17.97642
G1 X68.567 Y76.184 E17.99915
G1 X68.657 Y76.133 E18.00431
G1 X68.874 Y75.832 E18.02282
G1 X68.987 Y75.401 E18.04505
G1 X69.015 Y75.002 E18.065
G1 X69.019 Y74.954 E18.06741
G1 X68.973 Y74.393 E18.09549
G1 X68.921 Y74.184 E18.10623
G1 X68.757 Y73.852 E18.12471
G1 X68.651 Y73.758 E18.13178
G1 X68.35 Y73.686 E18.14722
G1 X67.725 Y73.652 E18.17844
G0 F3600 X67.323 Y73.317
;TYPE:WALL-OUTER
G1 F2100 X67.33 Y76.204 E18.32248
G1 X67.319 Y76.54 E18.33925
G1 X67.407 Y76.7 E18.34836
G1 X68.166 Y76.67 E18.38626
G1 X68.709 Y76.564 E18.41386
G1 X68.913 Y76.447 E18.42559
G1 X69.139 Y76.191 E18.44263
G1 X69.25 Y75.976 E18.4547
G1 X69.383 Y75.467 E18.48095
G1 X69.414 Y75.03 E18.5028
G1 X69.42 Y74.952 E18.50671
G1 X69.369 Y74.328 E18.53794
G1 X69.299 Y74.045 E18.55248
G1 X69.087 Y73.617 E18.57631
G1 X68.803 Y73.383 E18.59467
G1 X68.408 Y73.288 E18.61494
G1 X67.476 Y73.236 E18.66151
G1 X67.323 Y73.317 E18.67015
G0 F3600 X67.323 Y73.517
G0 X67.992 Y73.933
G0 X68.14 Y74.956
;TYPE:SKIN
G1 F1838.1 X68.135 Y75.852 E18.72122
G1 F1862.5 X68.41 Y75.79 E18.73708
G1 X68.497 Y75.669 E18.74546
G1 X68.585 Y75.333 E18.765
G1 F1838.1 X68.603 Y74.972 E18.7856
G1 F1850.2 X68.568 Y74.375 E18.81946
G1 F1891.9 X68.426 Y74.119 E18.83568
G1 X68.129 Y74.078 E18.85228
G1 F1850.2 X68.14 Y74.956 E18.902
G0 F3600 X68.327 Y74.956
G1 F1500 E12.402
G0 F3600 X67.53 Y76.203
G0 X65.729 Y76.205
G0 X64.945 Y77.158
G0 X64.353 Y77.959
G0 X63.493 Y78.408
G0 X62.04 Y78.436
G0 X61.229 Y78.097
G0 X60.787 Y77.344
G0 X60.673 Y76.22
G1 F1500 E18.902
G0 F3600 X60.87 Y76.445
;TYPE:WALL-INNER
G1 F2100 X61.124 Y76.233 E18.91851
G1 X61.58 Y76.091 E18.94233
G1 F2063.9 X62.128 Y76.14 E18.97026
G1 F1944.4 X62.36 Y76.224 E18.98356
G1 F1858.4 X62.811 Y76.532 E19.01435
G1 F1846.2 X62.911 Y76.49 E19.0205
G1 X62.987 Y76.323 E19.03091
G1 X62.953 Y76.169 E19.03986
G1 X62.844 Y76.006 E19.05099
G1 F1858.4 X62.559 Y75.825 E19.07003
G1 F1931 X62 Y75.693 E19.10119
G1 F2043.8 X61.615 Y75.49 E19.1235
G1 F2100 X61.522 Y75.402 E19.12989
G1 X61.324 Y75.052 E19.14995
G1 X61.299 Y74.875 E19.15887
G1 X61.325 Y74.412 E19.182
G1 X61.467 Y74.076 E19.2002
G1 X61.69 Y73.82 E19.21714
G1 X61.503 Y73.806 E19.2265
G1 X61.131 Y73.637 E19.24688
G1 X60.994 Y73.535 E19.2554
G1 X60.751 Y73.22 E19.27525
G1 X60.658 Y72.975 E19.28832
G1 X60.606 Y73.093 E19.29476
G1 X60.336 Y73.379 E19.31438
G1 X60.021 Y73.531 E19.33183
G1 X59.494 Y73.628 E19.35856
G1 X58.833 Y73.594 E19.39158
G1 X58.826 Y76.533 E19.53821
G1 X58.85 Y77.385 E19.58074
G1 X58.724 Y77.876 E19.60603
G1 X58.456 Y78.249 E19.62894
G1 X58.208 Y78.408 E19.64364
G1 X57.986 Y78.478 E19.65525
G1 X57.607 Y78.504 E19.6742
G1 X57.183 Y78.376 E19.6963
G1 X56.949 Y78.221 E19.7103
G1 X56.746 Y77.928 E19.72809
G1 X56.675 Y77.732 E19.73849
G1 X56.697 Y77.036 E19.77323
G1 X56.687 Y76.336 E19.80815
G1 X56.691 Y74.694 E19.89007
G1 X56.684 Y74.112 E19.91911
G1 X56.717 Y73.58 E19.9457
G1 X56.481 Y73.577 E19.95748
G1 X55.882 Y73.642 E19.98754
G1 X55.591 Y73.615 E20.00212
G1 X55.226 Y73.446 E20.02219
G1 X55.129 Y73.363 E20.02856
G1 X54.922 Y73.047 E20.0474
G1 X54.874 Y73.263 E20.05844
G1 X54.741 Y73.527 E20.07319
G1 X54.447 Y73.819 E20.09386
G1 X54.282 Y73.916 E20.10341
G1 X53.955 Y73.997 E20.12022
G1 X53.751 Y73.979 E20.13044
G1 X53.276 Y73.849 E20.15501
G1 X52.693 Y73.498 E20.18896
G1 X52.497 Y73.476 E20.1988
G1 X52.251 Y73.528 E20.21134
G1 X51.972 Y73.714 E20.22807
G1 X51.798 Y74.02 E20.24563
G1 X51.686 Y74.535 E20.27193
G1 X51.67 Y75.222 E20.30621
G1 X51.724 Y75.662 E20.32833
G1 X51.821 Y75.98 E20.34491
G1 X52.02 Y76.268 E20.36238
G1 X52.301 Y76.418 E20.37827
G1 X52.55 Y76.458 E20.39085
G1 X52.87 Y76.407 E20.40702
G1 X53.22 Y76.101 E20.43021
G1 X53.641 Y75.949 E20.45254
G1 X53.95 Y75.948 E20.46796
G1 X54.321 Y76.058 E20.48726
G1 X54.63 Y76.261 E20.50571
G1 X54.912 Y76.665 E20.53029
G1 X54.969 Y77.042 E20.54931
G1 X54.922 Y77.254 E20.56014
G1 X54.743 Y77.636 E20.58119
G1 X54.382 Y78.069 E20.60932
G1 X54.01 Y78.328 E20.63193
G1 X53.46 Y78.557 E20.66165
G1 X52.635 Y78.66 E20.70313
G1 X51.934 Y78.593 E20.73827
G1 X51.402 Y78.444 E20.76583
G1 X50.863 Y78.151 E20.79644
G1 X50.465 Y77.839 E20.82167
G1 X50.024 Y77.298 E20.85649
G1 X49.704 Y76.603 E20.89466
G1 X49.704 Y79.855 E21.0569
G1 X49.753 Y80.231 E21.07582
G1 X49.873 Y80.528 E21.0918
G1 X50.12 Y80.823 E21.111
G1 X50.376 Y80.979 E21.12595
G1 X50.665 Y81.069 E21.14105
G1 X74.576 Y82.533 E22.33621
G1 X75.553 Y82.533 E22.38496
G1 X76.423 Y82.47 E22.42847
G1 X77.027 Y82.399 E22.45882
G1 X77.682 Y82.296 E22.49189
G1 X78.814 Y82.044 E22.54975
G1 X79.944 Y81.684 E22.60892
G1 X80.688 Y81.382 E22.64898
G1 X81.27 Y81.119 E22.68084
G1 X81.818 Y80.841 E22.7115
G1 X82.371 Y80.53 E22.74315
G1 X83.106 Y80.073 E22.78633
G1 X83.962 Y79.448 E22.83921
G1 X84.838 Y78.683 E22.89723
G1 X83.103 Y78.678 E22.98379
G1 X82.521 Y78.692 E23.01284
G1 X82.061 Y78.518 E23.03737
G1 X81.773 Y78.196 E23.05893
G1 X81.649 Y77.903 E23.0748
G1 F1710.8 X81.533 Y77.249 E23.11548
G1 F1433.4 X81.714 Y76.766 E23.15318
G1 F1697 X81.975 Y76.496 E23.17636
G1 F2100 X83.001 Y75.073 E23.26388
G1 X82.563 Y75.032 E23.28583
G1 X82.091 Y74.859 E23.31091
G1 X81.805 Y74.576 E23.33098
G1 X81.589 Y75.041 E23.35656
G1 X81.345 Y75.781 E23.39544
G1 X81.226 Y76.117 E23.41322
G1 F1697 X81.18 Y76.524 E23.43851
G1 F1433.4 X80.977 Y77.079 E23.4817
G1 F1673.3 X80.758 Y77.423 E23.50723
G1 F2043.8 X80.402 Y78.417 E23.56136
G1 F2100 X79.856 Y79.815 E23.63624
G1 X79.604 Y80.272 E23.66227
G1 X79.189 Y80.736 E23.69333
G1 X78.74 Y81.011 E23.7196
G1 X78.285 Y81.165 E23.74356
G1 X77.758 Y81.215 E23.76997
G1 X77.52 Y81.176 E23.78201
G1 X77.253 Y81.071 E23.79632
G1 X76.968 Y80.816 E23.8154
G1 X76.839 Y80.614 E23.82736
G1 X76.692 Y80.153 E23.8515
G1 X76.705 Y79.825 E23.86787
G1 X76.781 Y79.614 E23.87906
G1 F1690.1 X77.028 Y79.188 E23.90959
G1 F1423.7 X77.185 Y79.103 E23.92273
G1 F1703.9 X77.604 Y79.051 E23.94869
G1 F2100 X77.822 Y78.98 E23.96013
G1 X77.984 Y78.842 E23.97074
G1 X78.199 Y78.271 E24.00118
G1 X78.417 Y77.802 E24.02698
G1 X78.429 Y77.704 E24.03191
G1 X78.202 Y77.135 E24.06247
G1 X77.497 Y75.25 E24.16288
G1 X77.27 Y74.709 E24.19215
G1 X77.165 Y74.28 E24.21418
G1 X77.085 Y74.492 E24.22549
G1 X76.678 Y75.189 E24.26576
G1 X76.431 Y75.594 E24.28942
G1 X76.384 Y75.736 E24.29689
G1 X76.864 Y76.559 E24.34442
G1 X77.171 Y77.062 E24.37382
G1 X77.273 Y77.396 E24.39124
G1 X77.238 Y78.013 E24.42207
G1 F1703.9 X76.894 Y78.594 E24.46359
G1 F1423.7 X76.782 Y78.65 E24.47281
G1 F1690.1 X76.249 Y78.7 E24.50599
G1 F2100 X75.82 Y78.621 E24.52775
G1 X75.419 Y78.338 E24.55224
G1 X75.115 Y77.858 E24.58059
G1 X74.879 Y78.215 E24.60194
G1 X74.443 Y78.592 E24.63069
G1 X74.161 Y78.676 E24.64537
G1 X73.717 Y78.626 E24.66766
G1 X73.53 Y78.54 E24.67793
G1 X73.249 Y78.323 E24.69565
G1 X73.15 Y78.168 E24.70482
G1 X73.046 Y78.32 E24.71401
G1 X72.675 Y78.682 E24.73987
G1 X72.102 Y78.943 E24.77128
G1 X71.489 Y78.934 E24.80187
G1 X71.307 Y78.895 E24.81116
G1 X70.925 Y78.722 E24.83208
G1 X70.645 Y78.504 E24.84978
G1 X70.385 Y78.172 E24.87082
G1 X70.217 Y77.693 E24.89614
G1 X69.906 Y77.953 E24.91637
G1 X69.496 Y78.191 E24.94002
G1 X68.834 Y78.419 E24.97495
G1 X67.968 Y78.486 E25.01828
G1 X67.036 Y78.477 E25.06478
G1 X66.389 Y78.503 E25.09709
G1 X66.136 Y78.43 E25.11023
G1 X65.877 Y78.265 E25.12555
G1 X65.635 Y77.913 E25.14686
G1 X65.517 Y77.374 E25.17439
G1 X65.514 Y77.243 E25.18092
G1 F1576 X65.394 Y76.737 E25.21549
G1 X65.111 Y77.172 E25.24999
G1 F2100 X64.831 Y77.673 E25.27863
G1 X64.46 Y78.081 E25.30614
G1 X63.922 Y78.427 E25.33805
G1 X63.467 Y78.575 E25.36192
G1 X62.798 Y78.661 E25.39557
G1 X62.071 Y78.601 E25.43197
G1 X61.59 Y78.469 E25.45685
G1 X61.104 Y78.197 E25.48464
G1 X60.839 Y77.917 E25.50387
G1 X60.748 Y77.745 E25.51358
G1 X60.604 Y77.231 E25.54021
G1 X60.686 Y76.744 E25.56485
G1 X60.87 Y76.445 E25.58236
G0 F3600 X60.673 Y76.22
G0 X60.751 Y77.24
G0 X61.229 Y78.097
G0 X62.04 Y78.436
G0 X63.493 Y78.408
G0 X64.353 Y77.959
G0 X65.688 Y75.542
G0 X65.651 Y72.492
G0 X66.325 Y71.639
G0 X67.663 Y71.25
G0 X85.85 Y72.82
G0 X86.035 Y72.672
G1 F1693.5 X85.938 Y72.521 E25.59347
G1 F1931 X85.627 Y72.105 E25.62165
G1 F2100 X85.092 Y71.559 E25.65978
G1 X84.655 Y71.148 E25.68971
G1 X84.018 Y70.607 E25.73141
G1 X83.482 Y70.199 E25.76502
G1 X82.863 Y69.776 E25.80242
G1 X82.258 Y69.405 E25.83783
G1 X81.808 Y69.154 E25.86353
